!!!COM: Claude Goudimel
!!!OMD: Psalm 99: Or est maintenant
**kern	**kern	**kern	**kern
*part4	*part3	*part2	*part1
*staff4	*staff3	*staff2	*staff1
*I"bassus	*I"tenor	*I"contra	*I"superius
*clefF4	*clefC4	*clefC3	*clefC1
*k[b-]	*k[b-]	*k[b-]	*k[b-]
!!LO:TX:omd:t=
*M2/2	*M2/2	*M2/2	*M2/2
*met(c|)	*met(c|)	*met(c|)	*met(c|)
=1	=1	=1	=1
1FF	1F	1A	1c
=2	=2	=2	=2
1FF	1C	1c	1A
=3	=3	=3	=3
2BB-	2D	2B-	2F
2C	2E	2G	2c
=4	=4	=4	=4
2FF	2F	2A	2c
[2F	[2A	[2F	[2c
=5	=5	=5	=5
2F]	2A]	2F]	2c]
2F	2A	2F	2c
=6	=6	=6	=6
2BB-	2B-	2F	2d
2C	2G	2E	2c
=7	=7	=7	=7
1FF	1F	1F	1c
=8	=8	=8	=8
1r	1r	1r	1r
=9	=9	=9	=9
1F	1c	1A	1f
=10	=10	=10	=10
1C	1c	1G	1e
=11	=11	=11	=11
2D	2A	2F#X	2d
2GG	2B-	2G	2d
=12	=12	=12	=12
2C	2c	2G	2e
[2F	[2A	[2Fn	[2c
=13	=13	=13	=13
2F]	2A]	2F]	2c]
2F	2c	2A	2A
=14	=14	=14	=14
2G	2B-	2G	2d
2G	2B-	2G	2d
=15	=15	=15	=15
1D	1A	1F#X	1d
=16	=16	=16	=16
1r	1r	1r	1r
=17	=17	=17	=17
1F	1c	1A	1f
=18	=18	=18	=18
1BB-	1B-	1F	1d
=19	=19	=19	=19
2F	2A	2F	2c
2C	2G	2E	2c
=20	=20	=20	=20
2D	2F	2F	2A
[2GG	[2D	[2G	[2Bn
=21	=21	=21	=21
2GG]	2D]	2G]	2B]
2C	2E	2G	2c
=22	=22	=22	=22
2FF	2F	2A	2c
2GG	2D	2G	2Bn
=23	=23	=23	=23
1C	1C	1E	1c
=24	=24	=24	=24
1r	1r	1r	1r
=25	=25	=25	=25
1FF	1C	1F	1A
=26	=26	=26	=26
1FF	1F	1A	1c
=27	=27	=27	=27
2C	2G	2G	2c
2AA	2A	2F	2c
=28	=28	=28	=28
1GG	1B-	1G	1d
=29	=29	=29	=29
2AA	2A	2E	2c
[2D	[2F	[2D	[2A
=30	=30	=30	=30
2D]	2F]	2D]	2A]
2C	2G	2E	2c
=31	=31	=31	=31
2F	2A	2F	2c
2BB-	2B-	[2F	2d
=32	=32	=32	=32
1C	1G	2F]	1c
.	.	2E	.
=33	=33	=33	=33
1FF;	1F;	1F;	1c;
==	==	==	==
*-	*-	*-	*-
!!!software: music21 v.9.7.1
!!!software: music21 v.9.1.0
!!!RDF**kern: > = above
!!!RDF**kern: < = below
